documentation/public/assets/images/04-link-sizes-typography.svg

<svg width="672" height="84" viewBox="0 0 672 84" fill="none" xmlns="http://www.w3.org/2000/svg">
<rect width="672" height="84" fill="#F6F6F6"/>
<path d="M55.3608 46.5V37.7727H56.9418V45.1747H60.7855V46.5H55.3608ZM62.0895 46.5V39.9545H63.6321V46.5H62.0895ZM62.8651 39.0256C62.6207 39.0256 62.4105 38.9446 62.2344 38.7827C62.0582 38.6179 61.9702 38.4205 61.9702 38.1903C61.9702 37.9574 62.0582 37.7599 62.2344 37.598C62.4105 37.4332 62.6207 37.3509 62.8651 37.3509C63.1122 37.3509 63.3224 37.4332 63.4957 37.598C63.6719 37.7599 63.7599 37.9574 63.7599 38.1903C63.7599 38.4205 63.6719 38.6179 63.4957 38.7827C63.3224 38.9446 63.1122 39.0256 62.8651 39.0256ZM66.761 42.6648V46.5H65.2184V39.9545H66.6928V41.0668H66.7695C66.9201 40.7003 67.1602 40.4091 67.4897 40.1932C67.8221 39.9773 68.2326 39.8693 68.7212 39.8693C69.1729 39.8693 69.5664 39.9659 69.9016 40.1591C70.2397 40.3523 70.5011 40.6321 70.6857 40.9986C70.8732 41.3651 70.9656 41.8097 70.9627 42.3324V46.5H69.4201V42.571C69.4201 42.1335 69.3065 41.7912 69.0792 41.544C68.8548 41.2969 68.5437 41.1733 68.146 41.1733C67.8761 41.1733 67.636 41.233 67.4258 41.3523C67.2184 41.4687 67.055 41.6378 66.9357 41.8594C66.8192 42.081 66.761 42.3494 66.761 42.6648ZM73.9371 44.446L73.9329 42.5838H74.18L76.5323 39.9545H78.3349L75.4414 43.1761H75.1218L73.9371 44.446ZM72.5309 46.5V37.7727H74.0735V46.5H72.5309ZM76.6388 46.5L74.5082 43.5213L75.5479 42.4347L78.484 46.5H76.6388ZM83.6009 39.9545L84.9219 42.3707L86.2642 39.9545H87.8963L85.9233 43.2273L87.9304 46.5H86.3068L84.9219 44.1435L83.5497 46.5H81.9134L83.9077 43.2273L81.9645 39.9545H83.6009ZM94.2628 41.6847L92.8565 41.8381C92.8168 41.696 92.7472 41.5625 92.6477 41.4375C92.5511 41.3125 92.4205 41.2116 92.2557 41.1349C92.0909 41.0582 91.8892 41.0199 91.6506 41.0199C91.3295 41.0199 91.0597 41.0895 90.8409 41.2287C90.625 41.3679 90.5185 41.5483 90.5213 41.7699C90.5185 41.9602 90.5881 42.1151 90.7301 42.2344C90.875 42.3537 91.1136 42.4517 91.446 42.5284L92.5625 42.767C93.1818 42.9006 93.642 43.1122 93.9432 43.402C94.2472 43.6918 94.4006 44.071 94.4034 44.5398C94.4006 44.9517 94.2798 45.3153 94.0412 45.6307C93.8054 45.9432 93.4773 46.1875 93.0568 46.3636C92.6364 46.5398 92.1534 46.6278 91.608 46.6278C90.8068 46.6278 90.1619 46.4602 89.6733 46.125C89.1847 45.7869 88.8935 45.3168 88.7997 44.7145L90.304 44.5696C90.3722 44.8651 90.517 45.0881 90.7386 45.2386C90.9602 45.3892 91.2486 45.4645 91.6037 45.4645C91.9702 45.4645 92.2642 45.3892 92.4858 45.2386C92.7102 45.0881 92.8224 44.902 92.8224 44.6804C92.8224 44.4929 92.75 44.3381 92.6051 44.2159C92.4631 44.0937 92.2415 44 91.9403 43.9347L90.8239 43.7003C90.196 43.5696 89.7315 43.3494 89.4304 43.0398C89.1293 42.7273 88.9801 42.3324 88.983 41.8551C88.9801 41.4517 89.0895 41.1023 89.3111 40.8068C89.5355 40.5085 89.8466 40.2784 90.2443 40.1165C90.6449 39.9517 91.1065 39.8693 91.6293 39.8693C92.3963 39.8693 93 40.0327 93.4403 40.3594C93.8835 40.6861 94.1577 41.1278 94.2628 41.6847Z" fill="#0F67F5"/>
<line x1="128" y1="34" x2="128" y2="50" stroke="#757575"/>
<path d="M160.504 47V36.8182H162.349V45.4538H166.833V47H160.504ZM168.354 47V39.3636H170.154V47H168.354ZM169.259 38.2798C168.974 38.2798 168.729 38.1854 168.523 37.9964C168.318 37.8042 168.215 37.5739 168.215 37.3054C168.215 37.0336 168.318 36.8033 168.523 36.6143C168.729 36.4221 168.974 36.326 169.259 36.326C169.548 36.326 169.793 36.4221 169.995 36.6143C170.201 36.8033 170.303 37.0336 170.303 37.3054C170.303 37.5739 170.201 37.8042 169.995 37.9964C169.793 38.1854 169.548 38.2798 169.259 38.2798ZM173.805 42.5256V47H172.005V39.3636H173.725V40.6612H173.814C173.99 40.2337 174.27 39.8939 174.655 39.642C175.042 39.3902 175.521 39.2642 176.091 39.2642C176.618 39.2642 177.077 39.3769 177.469 39.6023C177.863 39.8277 178.168 40.1541 178.383 40.5817C178.602 41.0092 178.71 41.5279 178.706 42.1378V47H176.907V42.4162C176.907 41.9058 176.774 41.5064 176.509 41.218C176.247 40.9297 175.884 40.7855 175.42 40.7855C175.105 40.7855 174.825 40.8551 174.58 40.9943C174.338 41.1302 174.148 41.3274 174.008 41.5859C173.872 41.8445 173.805 42.1577 173.805 42.5256ZM182.177 44.6037L182.172 42.4311H182.46L185.204 39.3636H187.307L183.932 43.1222H183.559L182.177 44.6037ZM180.536 47V36.8182H182.336V47H180.536ZM185.329 47L182.843 43.5249L184.056 42.2571L187.481 47H185.329ZM198.015 41.3821L196.374 41.5611C196.328 41.3954 196.247 41.2396 196.131 41.0938C196.018 40.9479 195.866 40.8303 195.673 40.7408C195.481 40.6513 195.246 40.6065 194.967 40.6065C194.593 40.6065 194.278 40.6877 194.023 40.8501C193.771 41.0125 193.647 41.223 193.65 41.4815C193.647 41.7036 193.728 41.8842 193.893 42.0234C194.063 42.1626 194.341 42.277 194.729 42.3665L196.031 42.6449C196.754 42.8007 197.291 43.0476 197.642 43.3857C197.997 43.7237 198.176 44.1662 198.179 44.7131C198.176 45.1937 198.035 45.6179 197.756 45.9858C197.481 46.3504 197.098 46.6354 196.608 46.8409C196.117 47.0464 195.554 47.1491 194.918 47.1491C193.983 47.1491 193.231 46.9536 192.661 46.5625C192.09 46.1681 191.751 45.6196 191.641 44.9169L193.396 44.7479C193.476 45.0926 193.645 45.3527 193.903 45.5284C194.162 45.7041 194.498 45.7919 194.913 45.7919C195.34 45.7919 195.683 45.7041 195.942 45.5284C196.204 45.3527 196.335 45.1357 196.335 44.8771C196.335 44.6584 196.25 44.4777 196.081 44.3352C195.915 44.1927 195.657 44.0833 195.305 44.0071L194.003 43.7337C193.27 43.5812 192.728 43.3243 192.377 42.9631C192.026 42.5985 191.852 42.1378 191.855 41.581C191.852 41.1103 191.979 40.7027 192.238 40.358C192.5 40.0099 192.863 39.7415 193.327 39.5526C193.794 39.3603 194.333 39.2642 194.942 39.2642C195.837 39.2642 196.542 39.4548 197.055 39.8359C197.572 40.2171 197.892 40.7325 198.015 41.3821ZM199.663 47V39.3636H201.383V40.6612H201.473C201.632 40.2237 201.895 39.8823 202.263 39.6371C202.631 39.3885 203.07 39.2642 203.581 39.2642C204.098 39.2642 204.533 39.3902 204.888 39.642C205.246 39.8906 205.498 40.2304 205.644 40.6612H205.723C205.892 40.237 206.177 39.8989 206.578 39.647C206.983 39.3918 207.462 39.2642 208.015 39.2642C208.718 39.2642 209.291 39.4863 209.735 39.9304C210.18 40.3745 210.402 41.0225 210.402 41.8743V47H208.597V42.1527C208.597 41.6787 208.471 41.3324 208.219 41.1136C207.967 40.8916 207.659 40.7805 207.294 40.7805C206.86 40.7805 206.52 40.9164 206.275 41.1882C206.033 41.4567 205.912 41.8063 205.912 42.2372V47H204.147V42.0781C204.147 41.6837 204.028 41.3688 203.789 41.1335C203.554 40.8982 203.246 40.7805 202.865 40.7805C202.606 40.7805 202.371 40.8468 202.159 40.9794C201.947 41.1087 201.778 41.2926 201.652 41.5312C201.526 41.7666 201.463 42.0417 201.463 42.3565V47H199.663Z" fill="#0F67F5"/>
<line x1="244" y1="34" x2="244" y2="50" stroke="#757575"/>
<path d="M276.648 48V36.3636H278.756V46.233H283.881V48H276.648ZM285.619 48V39.2727H287.676V48H285.619ZM286.653 38.0341C286.328 38.0341 286.047 37.9261 285.812 37.7102C285.578 37.4905 285.46 37.2273 285.46 36.9205C285.46 36.6098 285.578 36.3466 285.812 36.1307C286.047 35.911 286.328 35.8011 286.653 35.8011C286.983 35.8011 287.263 35.911 287.494 36.1307C287.729 36.3466 287.847 36.6098 287.847 36.9205C287.847 37.2273 287.729 37.4905 287.494 37.7102C287.263 37.9261 286.983 38.0341 286.653 38.0341ZM291.848 42.8864V48H289.791V39.2727H291.757V40.7557H291.859C292.06 40.267 292.38 39.8788 292.82 39.5909C293.263 39.303 293.81 39.1591 294.462 39.1591C295.064 39.1591 295.589 39.2879 296.036 39.5455C296.486 39.803 296.835 40.1761 297.081 40.6648C297.331 41.1534 297.454 41.7462 297.45 42.4432V48H295.393V42.7614C295.393 42.178 295.242 41.7216 294.939 41.392C294.64 41.0625 294.225 40.8977 293.695 40.8977C293.335 40.8977 293.015 40.9773 292.734 41.1364C292.458 41.2917 292.24 41.517 292.081 41.8125C291.926 42.108 291.848 42.4659 291.848 42.8864ZM301.416 45.2614L301.411 42.7784H301.74L304.876 39.2727H307.28L303.422 43.5682H302.996L301.416 45.2614ZM299.541 48V36.3636H301.598V48H299.541ZM305.018 48L302.178 44.0284L303.564 42.5795L307.479 48H305.018ZM312.619 48V39.2727H314.585V40.7557H314.688C314.869 40.2557 315.17 39.8655 315.591 39.5852C316.011 39.3011 316.513 39.1591 317.097 39.1591C317.688 39.1591 318.186 39.303 318.591 39.5909C319 39.875 319.288 40.2633 319.455 40.7557H319.545C319.739 40.2708 320.064 39.8845 320.523 39.5966C320.985 39.3049 321.532 39.1591 322.165 39.1591C322.968 39.1591 323.623 39.4129 324.131 39.9205C324.638 40.428 324.892 41.1686 324.892 42.142V48H322.83V42.4602C322.83 41.9186 322.686 41.5227 322.398 41.2727C322.11 41.0189 321.758 40.892 321.341 40.892C320.845 40.892 320.456 41.0473 320.176 41.358C319.9 41.6648 319.761 42.0644 319.761 42.5568V48H317.744V42.375C317.744 41.9242 317.608 41.5644 317.335 41.2955C317.066 41.0265 316.714 40.892 316.278 40.892C315.983 40.892 315.714 40.9678 315.472 41.1193C315.229 41.267 315.036 41.4773 314.892 41.75C314.748 42.0189 314.676 42.3333 314.676 42.6932V48H312.619ZM330.217 48.1534C329.532 48.1534 328.918 47.9773 328.376 47.625C327.835 47.2727 327.407 46.7614 327.092 46.0909C326.778 45.4205 326.621 44.6061 326.621 43.6477C326.621 42.678 326.78 41.8598 327.098 41.1932C327.42 40.5227 327.854 40.017 328.399 39.6761C328.945 39.3314 329.553 39.1591 330.223 39.1591C330.734 39.1591 331.155 39.2462 331.484 39.4205C331.814 39.5909 332.075 39.7973 332.268 40.0398C332.462 40.2784 332.611 40.5038 332.717 40.7159H332.803V36.3636H334.865V48H332.842V46.625H332.717C332.611 46.8371 332.458 47.0625 332.257 47.3011C332.056 47.536 331.791 47.7367 331.462 47.9034C331.132 48.0701 330.717 48.1534 330.217 48.1534ZM330.791 46.4659C331.227 46.4659 331.598 46.3485 331.905 46.1136C332.212 45.875 332.445 45.5436 332.604 45.1193C332.763 44.6951 332.842 44.2008 332.842 43.6364C332.842 43.072 332.763 42.5814 332.604 42.1648C332.448 41.7481 332.217 41.4242 331.911 41.1932C331.607 40.9621 331.234 40.8466 330.791 40.8466C330.333 40.8466 329.95 40.9659 329.643 41.2045C329.337 41.4432 329.106 41.7727 328.95 42.1932C328.795 42.6136 328.717 43.0947 328.717 43.6364C328.717 44.1818 328.795 44.6686 328.95 45.0966C329.109 45.5208 329.342 45.8561 329.649 46.1023C329.96 46.3447 330.34 46.4659 330.791 46.4659Z" fill="#0F67F5"/>
<line x1="369" y1="34" x2="369" y2="50" stroke="#757575"/>
<path d="M402.006 49.5V34.2273H404.773V47.1808H411.5V49.5H402.006ZM413.782 49.5V38.0455H416.481V49.5H413.782ZM415.139 36.4197C414.711 36.4197 414.343 36.2781 414.035 35.9947C413.727 35.7063 413.573 35.3608 413.573 34.9581C413.573 34.5504 413.727 34.2049 414.035 33.9215C414.343 33.6332 414.711 33.489 415.139 33.489C415.571 33.489 415.939 33.6332 416.243 33.9215C416.551 34.2049 416.705 34.5504 416.705 34.9581C416.705 35.3608 416.551 35.7063 416.243 35.9947C415.939 36.2781 415.571 36.4197 415.139 36.4197ZM421.957 42.7884V49.5H419.257V38.0455H421.837V39.9918H421.972C422.235 39.3505 422.655 38.8409 423.232 38.4631C423.814 38.0852 424.532 37.8963 425.387 37.8963C426.178 37.8963 426.866 38.0653 427.453 38.4034C428.044 38.7415 428.502 39.2312 428.825 39.8725C429.153 40.5138 429.315 41.2919 429.31 42.2067V49.5H426.61V42.6243C426.61 41.8587 426.411 41.2596 426.014 40.8271C425.621 40.3945 425.076 40.1783 424.38 40.1783C423.908 40.1783 423.488 40.2827 423.12 40.4915C422.757 40.6953 422.471 40.9911 422.263 41.3789C422.059 41.7667 421.957 42.2365 421.957 42.7884ZM434.515 45.9055L434.508 42.6467H434.94L439.057 38.0455H442.211L437.147 43.6832H436.588L434.515 45.9055ZM432.054 49.5V34.2273H434.754V49.5H432.054ZM439.243 49.5L435.514 44.2873L437.334 42.3857L442.472 49.5H439.243ZM451.919 34.2273V49.5H449.219V34.2273H451.919ZM459.676 54.0341C458.707 54.0341 457.874 53.9023 457.178 53.6388C456.482 53.3803 455.923 53.0323 455.5 52.5948C455.078 52.1573 454.784 51.6726 454.62 51.1406L457.051 50.5515C457.161 50.7752 457.32 50.9964 457.528 51.2152C457.737 51.4389 458.018 51.6229 458.371 51.767C458.729 51.9162 459.179 51.9908 459.721 51.9908C460.487 51.9908 461.12 51.8043 461.623 51.4315C462.125 51.0636 462.376 50.457 462.376 49.6119V47.4418H462.242C462.102 47.7202 461.899 48.006 461.63 48.2994C461.367 48.5927 461.016 48.8388 460.579 49.0376C460.146 49.2365 459.602 49.3359 458.945 49.3359C458.065 49.3359 457.267 49.1296 456.552 48.717C455.841 48.2994 455.274 47.6779 454.851 46.8526C454.434 46.0224 454.225 44.9833 454.225 43.7354C454.225 42.4776 454.434 41.4162 454.851 40.5511C455.274 39.6811 455.843 39.0224 456.559 38.5749C457.275 38.1225 458.073 37.8963 458.953 37.8963C459.624 37.8963 460.176 38.0107 460.608 38.2393C461.046 38.4631 461.394 38.734 461.652 39.0522C461.911 39.3654 462.107 39.6612 462.242 39.9396H462.391V38.0455H465.053V49.6864C465.053 50.6658 464.819 51.4762 464.352 52.1175C463.885 52.7589 463.246 53.2386 462.435 53.5568C461.625 53.875 460.705 54.0341 459.676 54.0341ZM459.699 47.218C460.27 47.218 460.758 47.0788 461.16 46.8004C461.563 46.522 461.869 46.1218 462.078 45.5998C462.286 45.0778 462.391 44.4513 462.391 43.7205C462.391 42.9996 462.286 42.3683 462.078 41.8263C461.874 41.2844 461.57 40.8643 461.168 40.5661C460.77 40.2628 460.28 40.1112 459.699 40.1112C459.097 40.1112 458.595 40.2678 458.192 40.581C457.79 40.8942 457.486 41.3242 457.282 41.8711C457.079 42.413 456.977 43.0295 456.977 43.7205C456.977 44.4215 457.079 45.0355 457.282 45.5625C457.491 46.0845 457.797 46.4922 458.2 46.7855C458.607 47.0739 459.107 47.218 459.699 47.218Z" fill="#0F67F5"/>
<line x1="499" y1="34" x2="499" y2="50" stroke="#757575"/>
<path d="M532.509 52V31.6364H536.197V48.9077H545.166V52H532.509ZM548.209 52V36.7273H551.808V52H548.209ZM550.018 34.5597C549.448 34.5597 548.958 34.3707 548.547 33.9929C548.136 33.6084 547.93 33.1477 547.93 32.6108C547.93 32.0672 548.136 31.6065 548.547 31.2287C548.958 30.8442 549.448 30.652 550.018 30.652C550.595 30.652 551.086 30.8442 551.49 31.2287C551.901 31.6065 552.107 32.0672 552.107 32.6108C552.107 33.1477 551.901 33.6084 551.49 33.9929C551.086 34.3707 550.595 34.5597 550.018 34.5597ZM559.109 43.0511V52H555.51V36.7273H558.95V39.3224H559.129C559.48 38.4673 560.04 37.7879 560.809 37.2841C561.585 36.7803 562.543 36.5284 563.683 36.5284C564.737 36.5284 565.655 36.7538 566.437 37.2045C567.226 37.6553 567.836 38.3082 568.267 39.1634C568.704 40.0185 568.92 41.0559 568.913 42.2756V52H565.314V42.8324C565.314 41.8116 565.048 41.0128 564.518 40.4361C563.994 39.8594 563.269 39.571 562.341 39.571C561.711 39.571 561.151 39.7102 560.66 39.9886C560.176 40.2604 559.795 40.6548 559.517 41.1719C559.245 41.6889 559.109 42.3153 559.109 43.0511ZM575.853 47.2074L575.843 42.8622H576.42L581.909 36.7273H586.115L579.363 44.2443H578.618L575.853 47.2074ZM572.572 52V31.6364H576.172V52H572.572ZM582.157 52L577.186 45.0497L579.612 42.5142L586.463 52H582.157ZM598.402 36.7273L601.484 42.3651L604.616 36.7273H608.425L603.821 44.3636L608.504 52H604.716L601.484 46.5014L598.283 52H594.464L599.118 44.3636L594.584 36.7273H598.402ZM614.808 31.6364V52H611.209V31.6364H614.808Z" fill="#0F67F5"/>
</svg>

<svg width="672" height="84" fill="none" xmlns="http://www.w3.org/2000/svg"><path fill="#F6F6F6" d="M0 0h672v84H0z"/><path d="M55.36 46.5v-8.73h1.58v7.4h3.85v1.33h-5.43Zm6.73 0v-6.55h1.54v6.55H62.1Zm.78-7.47a.9.9 0 0 1-.64-.25.78.78 0 0 1-.26-.59c0-.23.09-.43.26-.6a.9.9 0 0 1 .64-.24c.24 0 .45.08.63.25.17.16.26.36.26.59 0 .23-.09.43-.26.6a.89.89 0 0 1-.63.24Zm3.9 3.63v3.84h-1.55v-6.55h1.47v1.12h.08c.15-.37.39-.66.72-.88.33-.21.74-.32 1.23-.32.45 0 .85.1 1.18.29.34.2.6.47.79.84.18.37.28.81.27 1.33v4.17h-1.54v-3.93c0-.44-.11-.78-.34-1.03a1.2 1.2 0 0 0-.93-.37c-.27 0-.51.06-.72.18-.21.12-.38.29-.5.5-.11.23-.17.5-.17.81Zm7.17 1.79v-1.87h.24l2.35-2.63h1.8l-2.89 3.23h-.32l-1.18 1.27Zm-1.4 2.05v-8.73h1.53v8.73h-1.54Zm4.1 0-2.13-2.98 1.04-1.09 2.93 4.07h-1.84Zm6.96-6.55 1.32 2.42 1.34-2.42h1.64l-1.98 3.28 2.01 3.27h-1.62l-1.39-2.36-1.37 2.36h-1.64l2-3.27-1.95-3.28h1.64Zm10.66 1.73-1.4.16a1.13 1.13 0 0 0-.6-.7 1.43 1.43 0 0 0-.6-.12c-.33 0-.6.07-.82.2-.22.15-.32.33-.32.55 0 .19.07.35.21.46.14.12.38.22.72.3l1.11.24c.62.13 1.08.34 1.38.63.3.3.46.67.46 1.14 0 .41-.12.78-.36 1.1-.23.3-.56.55-.98.72-.42.18-.9.27-1.45.27-.8 0-1.45-.17-1.94-.5a2 2 0 0 1-.87-1.42l1.5-.14c.07.3.22.52.44.67.22.15.5.22.86.22.37 0 .66-.07.89-.22.22-.15.33-.34.33-.56a.58.58 0 0 0-.21-.46 1.51 1.51 0 0 0-.67-.29l-1.12-.23a2.66 2.66 0 0 1-1.39-.66c-.3-.31-.45-.7-.45-1.18 0-.4.1-.76.33-1.05.23-.3.54-.53.93-.7.4-.16.87-.24 1.39-.24.77 0 1.37.16 1.81.49.44.33.72.77.82 1.32Z" fill="#0F67F5"/><path stroke="#757575" d="M128 34v16"/><path d="M160.5 47V36.82h1.85v8.63h4.48V47h-6.33Zm7.85 0v-7.64h1.8V47h-1.8Zm.9-8.72c-.28 0-.52-.1-.73-.28a.91.91 0 0 1-.3-.7c0-.27.1-.5.3-.69.2-.19.45-.28.74-.28s.53.1.74.28c.2.2.3.42.3.7 0 .26-.1.5-.3.69-.2.19-.45.28-.74.28Zm4.56 4.25V47H172v-7.64h1.72v1.3h.08c.18-.43.46-.77.84-1.02.4-.25.87-.38 1.44-.38.53 0 .99.12 1.38.34.4.23.7.55.91.98.22.43.33.95.33 1.56V47h-1.8v-4.58c0-.51-.14-.91-.4-1.2a1.4 1.4 0 0 0-1.09-.43c-.31 0-.6.07-.84.2a1.5 1.5 0 0 0-.57.6 2 2 0 0 0-.2.94Zm8.37 2.07v-2.17h.28l2.74-3.07h2.1l-3.37 3.76h-.37l-1.38 1.48Zm-1.64 2.4V36.82h1.8V47h-1.8Zm4.79 0-2.49-3.48 1.22-1.26 3.42 4.74h-2.15ZM198 41.38l-1.64.18a1.31 1.31 0 0 0-.7-.82 1.62 1.62 0 0 0-.7-.13c-.38 0-.7.08-.95.24-.25.16-.37.37-.37.63 0 .22.08.4.24.54.17.14.45.26.84.35l1.3.27c.72.16 1.26.4 1.61.75.36.33.54.78.54 1.32 0 .48-.15.9-.42 1.28-.28.36-.66.65-1.15.85-.5.2-1.06.3-1.7.3-.93 0-1.68-.19-2.25-.58a2.4 2.4 0 0 1-1.02-1.64l1.76-.17c.08.34.25.6.5.78.26.17.6.26 1.01.26.43 0 .77-.09 1.03-.26.26-.18.4-.4.4-.65 0-.22-.09-.4-.26-.54a1.77 1.77 0 0 0-.78-.33l-1.3-.28a3.1 3.1 0 0 1-1.62-.77 1.9 1.9 0 0 1-.53-1.38c0-.47.13-.88.39-1.22a2.5 2.5 0 0 1 1.09-.8c.46-.2 1-.3 1.61-.3.9 0 1.6.2 2.12.58.51.38.83.9.95 1.54Zm1.65 5.62v-7.64h1.72v1.3h.1c.15-.44.42-.78.78-1.02a2.3 2.3 0 0 1 1.32-.38c.52 0 .95.13 1.3.38.37.25.62.59.76 1.02h.08c.17-.42.46-.76.86-1.01.4-.26.88-.39 1.43-.39.7 0 1.28.23 1.73.67.44.44.66 1.1.66 1.94V47h-1.8v-4.85c0-.47-.13-.82-.38-1.04a1.35 1.35 0 0 0-.93-.33c-.43 0-.77.14-1.01.4a1.5 1.5 0 0 0-.37 1.06V47h-1.76v-4.92c0-.4-.12-.71-.36-.95a1.25 1.25 0 0 0-.92-.35 1.33 1.33 0 0 0-1.21.75c-.13.24-.2.51-.2.83V47h-1.8Z" fill="#0F67F5"/><path stroke="#757575" d="M244 34v16"/><path d="M276.65 48V36.36h2.1v9.87h5.13V48h-7.23Zm8.97 0v-8.73h2.06V48h-2.06Zm1.03-9.97c-.32 0-.6-.1-.84-.32a1.05 1.05 0 0 1-.35-.79c0-.31.12-.57.35-.79.24-.22.52-.33.84-.33.33 0 .61.11.84.33a1.05 1.05 0 0 1 0 1.58c-.23.22-.5.32-.84.32Zm5.2 4.86V48h-2.06v-8.73h1.97v1.49h.1c.2-.5.52-.88.96-1.17.44-.29.99-.43 1.64-.43.6 0 1.13.13 1.58.39.45.25.8.63 1.04 1.11.25.5.37 1.09.37 1.78V48h-2.06v-5.24c0-.58-.15-1.04-.45-1.37a1.6 1.6 0 0 0-1.25-.5c-.36 0-.68.09-.96.25-.27.15-.49.38-.65.67-.15.3-.23.66-.23 1.08Zm9.57 2.37v-2.48h.32l3.14-3.5h2.4l-3.86 4.29H303l-1.58 1.7ZM299.54 48V36.36h2.06V48h-2.06Zm5.48 0-2.84-3.97 1.38-1.45 3.92 5.42h-2.46Zm7.6 0v-8.73h1.96v1.49h.1c.19-.5.49-.9.91-1.17.42-.29.92-.43 1.5-.43.6 0 1.1.14 1.5.43.41.28.7.67.87 1.17h.09c.19-.49.51-.88.97-1.16.47-.3 1.01-.44 1.65-.44.8 0 1.45.25 1.96.76.5.5.76 1.25.76 2.22V48h-2.06v-5.54c0-.54-.14-.94-.43-1.19a1.54 1.54 0 0 0-1.06-.38c-.5 0-.88.16-1.16.47-.28.3-.42.7-.42 1.2V48h-2.02v-5.63c0-.45-.13-.8-.4-1.07s-.63-.4-1.06-.4c-.3 0-.57.07-.8.22-.25.15-.44.36-.59.63a2 2 0 0 0-.21.94V48h-2.06Zm17.6.15a3.3 3.3 0 0 1-3.13-2.06 5.73 5.73 0 0 1-.47-2.44c0-.97.16-1.79.48-2.46a3.35 3.35 0 0 1 4.39-1.77c.32.17.59.38.78.62.2.24.34.46.45.68h.08v-4.36h2.06V48h-2.02v-1.38h-.12c-.1.22-.26.44-.46.68a2.54 2.54 0 0 1-2.04.85Zm.57-1.68c.44 0 .8-.12 1.11-.36.31-.23.55-.57.7-1 .16-.41.24-.9.24-1.47s-.08-1.06-.24-1.48a2.1 2.1 0 0 0-.69-.97 1.8 1.8 0 0 0-1.12-.34c-.46 0-.84.12-1.15.35-.3.24-.53.57-.69 1-.15.41-.23.9-.23 1.44 0 .54.07 1.03.23 1.46.16.42.4.76.7 1 .31.24.69.37 1.14.37Z" fill="#0F67F5"/><path stroke="#757575" d="M369 34v16"/><path d="M402 49.5V34.23h2.77v12.95h6.73v2.32H402Zm11.78 0V38.05h2.7V49.5h-2.7Zm1.36-13.08c-.43 0-.8-.14-1.1-.43a1.35 1.35 0 0 1-.47-1.03c0-.41.16-.76.47-1.04.3-.29.67-.43 1.1-.43.43 0 .8.14 1.1.43.31.28.46.63.46 1.04 0 .4-.15.75-.46 1.03-.3.29-.67.43-1.1.43Zm6.82 6.37v6.71h-2.7V38.05h2.58v1.94h.13c.26-.64.68-1.15 1.26-1.53.58-.37 1.3-.56 2.16-.56.79 0 1.48.17 2.06.5.6.34 1.05.83 1.38 1.47.32.64.49 1.42.48 2.34v7.29h-2.7v-6.88c0-.76-.2-1.36-.6-1.8a2.1 2.1 0 0 0-1.63-.64c-.47 0-.9.1-1.26.31-.36.2-.65.5-.86.89a3 3 0 0 0-.3 1.4Zm12.56 3.12-.01-3.26h.43l4.12-4.6h3.15l-5.06 5.63h-.56l-2.07 2.23Zm-2.47 3.59V34.23h2.7V49.5h-2.7Zm7.2 0-3.74-5.21 1.82-1.9 5.14 7.11h-3.23Zm12.67-15.27V49.5h-2.7V34.23h2.7Zm7.76 19.8c-.97 0-1.8-.13-2.5-.4-.7-.25-1.26-.6-1.68-1.04a3.62 3.62 0 0 1-.88-1.45l2.43-.59a2.4 2.4 0 0 0 1.32 1.22c.36.15.8.22 1.35.22.77 0 1.4-.19 1.9-.56.5-.37.76-.97.76-1.82v-2.17h-.14a3.7 3.7 0 0 1-.61.86 3 3 0 0 1-1.05.74c-.43.2-.98.3-1.63.3a4.7 4.7 0 0 1-2.4-.62 4.44 4.44 0 0 1-1.7-1.87 6.91 6.91 0 0 1-.63-3.11c0-1.26.21-2.32.63-3.19a4.39 4.39 0 0 1 5.76-2.31c.44.22.78.5 1.04.81.26.32.46.61.6.89h.14v-1.9h2.66V49.7a4 4 0 0 1-.7 2.43 4.2 4.2 0 0 1-1.92 1.44 7.5 7.5 0 0 1-2.75.47Zm.02-6.81a2.5 2.5 0 0 0 1.46-.42c.4-.28.7-.68.92-1.2.2-.52.31-1.15.31-1.88 0-.72-.1-1.35-.31-1.9a2.7 2.7 0 0 0-.91-1.25c-.4-.3-.89-.46-1.47-.46-.6 0-1.1.16-1.5.47a2.8 2.8 0 0 0-.92 1.3c-.2.53-.3 1.15-.3 1.84 0 .7.1 1.32.3 1.84.21.52.52.93.92 1.23.4.28.9.43 1.5.43Z" fill="#0F67F5"/><path stroke="#757575" d="M499 34v16"/><path d="M532.5 52V31.64h3.7V48.9h8.97V52H532.5Zm15.7 0V36.73h3.6V52h-3.6Zm1.82-17.44a2.1 2.1 0 0 1-1.47-.57 1.83 1.83 0 0 1-.62-1.38c0-.54.2-1 .62-1.38.4-.39.9-.58 1.47-.58.58 0 1.07.2 1.47.58.41.38.62.84.62 1.38 0 .54-.2 1-.62 1.38-.4.38-.9.57-1.47.57Zm9.09 8.5V52h-3.6V36.73h3.44v2.6h.18c.35-.86.91-1.54 1.68-2.05a5.2 5.2 0 0 1 2.87-.75c1.06 0 1.98.22 2.76.67.79.46 1.4 1.1 1.83 1.96.43.86.65 1.9.64 3.12V52h-3.6v-9.17a3.4 3.4 0 0 0-.8-2.4 2.8 2.8 0 0 0-2.17-.86c-.63 0-1.19.14-1.68.42a2.9 2.9 0 0 0-1.14 1.18 4 4 0 0 0-.41 1.88Zm16.74 4.15v-4.35h.57l5.49-6.13h4.2l-6.75 7.51h-.74l-2.77 2.97ZM572.57 52V31.64h3.6V52h-3.6Zm9.59 0-4.97-6.95 2.42-2.54 6.85 9.49h-4.3Zm16.24-15.27 3.08 5.64 3.14-5.64h3.8l-4.6 7.63L608.5 52h-3.78l-3.24-5.5-3.2 5.5h-3.82l4.66-7.64-4.54-7.63h3.82Zm16.4-5.1V52h-3.6V31.64h3.6Z" fill="#0F67F5"/></svg>
